fa/wheelchair-move.svg

<svg xmlns="http://www.w3.org/2000/svg" viewBox="0 0 448 512" height="1em" width="1em">
  <path d="M416 48c0 26.51-21.5 48-48 48s-48-21.49-48-48 21.5-48 48-48 48 21.49 48 48zm-243.2 6.4c9.5-7.11 22.1-8.4 32.8-3.35l116.5 54.85c29.2 13.7 36.8 51.6 15.3 75.5L299.1 224H416c9.6 0 18.7 4.3 24.7 11.7 6.1 7.4 8.6 17.2 6.7 26.6l-32 160c-3.5 17.3-20.3 28.5-37.7 25.1-17.3-3.5-28.5-20.3-25.1-37.7L376.1 288h-69.4c8.6 19.6 13.3 41.2 13.3 64 0 88.4-71.6 160-160 160C71.63 512 0 440.4 0 352s71.63-160 160-160c11.1 0 21.1 1.1 32.4 3.3l54.2-54.2-50.8-23.9-48.6 36.4c-14.1 10.6-34.2 7.7-44.8-6.4-10.6-14.1-7.74-34.2 6.4-44.8l64-48zM160 448c53 0 96-43 96-96 0-53.9-43-96-96-96-53.9 0-96 42.1-96 96 0 53 42.1 96 96 96z"/>
</svg>

<svg xmlns="http://www.w3.org/2000/svg" viewBox="0 0 448 512" height="1em" width="1em">
  <path d="M416 48C416 74.51 394.5 96 368 96C341.5 96 320 74.51 320 48C320 21.49 341.5 0 368 0C394.5 0 416 21.49 416 48zM172.8 54.4C182.3 47.29 194.9 46 205.6 51.05L322.1 105.9C351.3 119.6 358.9 157.5 337.4 181.4L299.1 224H416C425.6 224 434.7 228.3 440.7 235.7C446.8 243.1 449.3 252.9 447.4 262.3L415.4 422.3C411.9 439.6 395.1 450.8 377.7 447.4C360.4 443.9 349.2 427.1 352.6 409.7L376.1 288H306.7C315.3 307.6 320 329.2 320 352C320 440.4 248.4 512 160 512C71.63 512 0 440.4 0 352C0 263.6 71.63 192 160 192C171.1 192 181.1 193.1 192.4 195.3L246.6 141.1L195.8 117.2L147.2 153.6C133.1 164.2 113 161.3 102.4 147.2C91.8 133.1 94.66 113 108.8 102.4L172.8 54.4zM160 448C213 448 256 405 256 352C256 298.1 213 256 160 256C106.1 256 64 298.1 64 352C64 405 106.1 448 160 448z"/>
</svg>
